.gitbook/assets/Components (1).svg

<svg width="404" height="251" viewBox="0 0 404 251" fill="none" xmlns="http://www.w3.org/2000/svg">
<rect width="404" height="251" fill="#FC6469"/>
<path fill-rule="evenodd" clip-rule="evenodd" d="M160.283 83.081C161.237 82.5705 162.394 82.6265 163.294 83.2265L185.294 97.8932C186.11 98.4372 186.601 99.3531 186.601 100.334V166.334C186.601 167.416 186.005 168.41 185.051 168.92C184.098 169.431 182.94 169.375 182.04 168.775L160.04 154.108C159.224 153.564 158.734 152.648 158.734 151.667V85.6672C158.734 84.5854 159.329 83.5914 160.283 83.081ZM164.601 91.1482V150.097L180.734 160.853V101.904L164.601 91.1482Z" fill="#360103"/>
<path fill-rule="evenodd" clip-rule="evenodd" d="M158.734 85.6672C158.734 84.0472 160.047 82.7339 161.667 82.7339H216.667C217.178 82.7339 217.679 82.8671 218.123 83.1204L243.789 97.787C244.944 98.4469 245.51 99.8013 245.169 101.087C244.828 102.372 243.664 103.267 242.334 103.267H183.667C182.047 103.267 180.734 101.954 180.734 100.334C180.734 98.7139 182.047 97.4006 183.667 97.4006H231.288L215.888 88.6006H161.667C160.047 88.6006 158.734 87.2873 158.734 85.6672Z" fill="#360103"/>
<path fill-rule="evenodd" clip-rule="evenodd" d="M242.334 97.4004C243.954 97.4004 245.267 98.7137 245.267 100.334V166.334C245.267 167.954 243.954 169.267 242.334 169.267H183.667C182.047 169.267 180.734 167.954 180.734 166.334C180.734 164.714 182.047 163.4 183.667 163.4H239.401V100.334C239.401 98.7137 240.714 97.4004 242.334 97.4004Z" fill="#360103"/>
</svg>

<svg xmlns="http://www.w3.org/2000/svg" width="404" height="251" fill="none" viewBox="0 0 404 251"><path fill="#FC6469" d="M0 0h404v251H0z"/><path fill="#360103" fill-rule="evenodd" d="M160.283 83.081a2.933 2.933 0 0 1 3.011.145l22 14.667a2.934 2.934 0 0 1 1.307 2.441v66a2.933 2.933 0 0 1-4.561 2.441l-22-14.667a2.933 2.933 0 0 1-1.306-2.441v-66c0-1.082.595-2.076 1.549-2.586Zm4.318 8.067v58.949l16.133 10.756v-58.949l-16.133-10.756Z" clip-rule="evenodd"/><path fill="#360103" fill-rule="evenodd" d="M158.734 85.667a2.933 2.933 0 0 1 2.933-2.933h55c.511 0 1.012.133 1.456.386l25.666 14.667a2.934 2.934 0 0 1-1.455 5.48h-58.667a2.933 2.933 0 1 1 0-5.866h47.621l-15.4-8.8h-54.221a2.933 2.933 0 0 1-2.933-2.934Z" clip-rule="evenodd"/><path fill="#360103" fill-rule="evenodd" d="M242.334 97.4a2.933 2.933 0 0 1 2.933 2.934v66a2.933 2.933 0 0 1-2.933 2.933h-58.667a2.933 2.933 0 1 1 0-5.867h55.734v-63.066a2.933 2.933 0 0 1 2.933-2.934Z" clip-rule="evenodd"/></svg>
